src/22/actions/code-class.svg

<svg xmlns="http://www.w3.org/2000/svg" viewBox="0 0 22 22">
  <defs id="defs3051">
    <style type="text/css" id="current-color-scheme">
      .ColorScheme-Text {
        color:#5d656b;
      }
      </style>
  </defs>
 <path 
     style="fill:currentColor;fill-opacity:1;stroke:none" 
	 d="m4 3v6h2v4h-3v6h6v-6h-2v-4h5v-2h4v7h-2v5h5v-5h-2v-7-1h-5v-3h-8m1 1h6v4h-6v-4m-1 10h4v4h-4v-4"
	 class="ColorScheme-Text"
     />
</svg>

<svg xmlns="http://www.w3.org/2000/svg" viewBox="0 0 22 22"><path d="M4 3v6h2v4H3v6h6v-6H7V9h5V7h4v7h-2v5h5v-5h-2V6h-5V3H4m1 1h6v4H5V4M4 14h4v4H4v-4" fill="currentColor" color="#5d656b"/></svg>
